build/img/service-guarantee.svg

<svg width="49" height="49" viewBox="0 0 49 49" fill="none" xmlns="http://www.w3.org/2000/svg">
<path fill-rule="evenodd" clip-rule="evenodd" d="M48.9724 8.82972C48.9724 3.96846 45.0315 0.0276337 40.1703 0.0276337H9.02444C4.16319 0.0276337 0.222363 3.96846 0.222363 8.82972V39.9755C0.222363 44.8368 4.16319 48.7776 9.02444 48.7776H40.1703C45.0315 48.7776 48.9724 44.8368 48.9724 39.9755V8.82972ZM4.28486 14.9235H44.9099V39.9755C44.9099 42.5931 42.7879 44.7151 40.1703 44.7151H9.02444C6.40685 44.7151 4.28486 42.5931 4.28486 39.9755V14.9235ZM9.02444 4.09013H40.1703C42.7879 4.09013 44.9099 6.21212 44.9099 8.82972V10.861H4.28486V8.82972C4.28486 6.21212 6.40685 4.09013 9.02444 4.09013Z" fill="white"/>
<path d="M21.84 28.78C23.1333 28.94 24.12 29.38 24.8 30.1C25.48 30.82 25.82 31.72 25.82 32.8C25.82 33.6133 25.6133 34.3533 25.2 35.02C24.7867 35.6867 24.16 36.22 23.32 36.62C22.4933 37.0067 21.48 37.2 20.28 37.2C19.28 37.2 18.3133 37.06 17.38 36.78C16.46 36.4867 15.6733 36.0867 15.02 35.58L16.14 33.56C16.6467 33.9867 17.26 34.3267 17.98 34.58C18.7133 34.82 19.4667 34.94 20.24 34.94C21.16 34.94 21.88 34.7533 22.4 34.38C22.9333 33.9933 23.2 33.4733 23.2 32.82C23.2 32.1667 22.9467 31.66 22.44 31.3C21.9467 30.9267 21.1867 30.74 20.16 30.74H18.88V28.96L22.06 25.18H15.7V23H25.24V24.74L21.84 28.78Z" fill="white"/>
<path d="M32.3606 23V37H29.7606V25.18H26.8006V23H32.3606Z" fill="white"/>
</svg>

<svg width="49" height="49" fill="none" xmlns="http://www.w3.org/2000/svg"><path fill-rule="evenodd" clip-rule="evenodd" d="M48.972 8.83A8.802 8.802 0 0040.17.028H9.024A8.802 8.802 0 00.222 8.83v31.145a8.802 8.802 0 008.802 8.803H40.17a8.802 8.802 0 008.802-8.803V8.83zM4.285 14.924H44.91v25.051a4.74 4.74 0 01-4.74 4.74H9.024a4.74 4.74 0 01-4.74-4.74V14.923zM9.025 4.09H40.17a4.74 4.74 0 014.74 4.74v2.031H4.285V8.83a4.74 4.74 0 014.74-4.74z" fill="#fff"/><path d="M21.84 28.78c1.293.16 2.28.6 2.96 1.32.68.72 1.02 1.62 1.02 2.7a4.13 4.13 0 01-.62 2.22c-.413.667-1.04 1.2-1.88 1.6-.827.387-1.84.58-3.04.58-1 0-1.967-.14-2.9-.42-.92-.293-1.707-.693-2.36-1.2l1.12-2.02c.507.427 1.12.767 1.84 1.02a7.22 7.22 0 002.26.36c.92 0 1.64-.187 2.16-.56.533-.387.8-.907.8-1.56s-.253-1.16-.76-1.52c-.493-.373-1.253-.56-2.28-.56h-1.28v-1.78l3.18-3.78H15.7V23h9.54v1.74l-3.4 4.04zM32.36 23v14h-2.6V25.18H26.8V23h5.56z" fill="#fff"/></svg>
